X:801
T:Planting the May
C:Old Dutch
L:1/4
S:Colin Hume's website,  colinhume.com  - chords can also be printed below the stave.
Q:1/2=112
M:2/2
R:Reel
%%stretchstaff 0
K:Am
P:A
|: E | "Am"AB cd | "/"e2 ce | "Dm"dc "E7"B3/A/ | "Am"A3 :|
P:B
|: c | "C"GG "F"AA | "C"GE- EG | "F"A/B/c/d/ "G7"ed | "C"c2- "E7"cB |\
"Am"AA "Dm"BB | "E"^GE2E | "D"^F/^G/A-"E7"AG | "Am"A3 :|

